X:47
T:Motet
C:Anonyme
O:XIIIe
M:6/8
L:1/8
K:Gm
%%staves [1 2]
%%continueall 1
V:1
d2c d2e | d3c3 | d2e f2e | d3 d3 | d2c d2e | d3c3 | 
d2c c2B | c3c3 | d2c d2e | d3c3 | g2ff2e | d3d2z | c2cc2B | d2ed2c |
d2cc2B | c3c3 | d2d e2d | c3d2f | g3f2d | d3d3 | d2ed2c | d3d3 |
c2AB2A | G3G3 | B2cd2c | d3d3 | "(=)"e2dd2B | c3c3 | d2de2d | c3e3 |
g2ff2e | d3d3 | g2ff2d | B3B2c | d2cc2B | c2cd2e | d2cB2A | G6 |
B3B2A | G6 | B2cd2e | fed cBA | G3d3 | de2fg2 | ag2g2f | g6 |]
V:2
G6 | B6 | G3F3 | G6 | B6 | c6 | 
G3A3 | F6 | G6 | B6 | G3B3 | d6 | c6 | G6 |
B3A3 | F6 | D6 | F6 | G3F3 | G6 | B3B3 | G6 |
F6 | G6 | B3c3 | G6 | A6 | F6 | G3B3 | G3z2z | 
B6 | d6 | c3G3 | B6 | A6 | F6 | D3F3 | G6 |
B6 | A3F3 | G6- | G6- | G6- | G6- | G6- | G6- |] 



%%header "$P0	 $IR 	$P1"
%%footer $D - Éditions Galouvielle - 2009 - À usage librement privé dans le cadre familial

